app/img/meet-bg.svg

<svg width="465" height="438" viewBox="0 0 465 438" fill="none" xmlns="http://www.w3.org/2000/svg">
    <g filter="url(#filter0_d_1011:1054)">
        <circle cx="222" cy="198" r="182" fill="url(#paint0_linear_1011:1054)"/>
    </g>
    <g opacity="0.81">
        <path opacity="0.81"
              d="M150.44 300.35C233.233 300.35 300.35 233.233 300.35 150.44C300.35 67.647 233.233 0.530029 150.44 0.530029C67.647 0.530029 0.530029 67.647 0.530029 150.44C0.530029 233.233 67.647 300.35 150.44 300.35Z"
              stroke="#FAFAFA" stroke-width="1.05" stroke-linecap="round" stroke-linejoin="round"/>
        <path opacity="0.81"
              d="M150.44 294.62C230.068 294.62 294.62 230.068 294.62 150.44C294.62 70.8116 230.068 6.26001 150.44 6.26001C70.8116 6.26001 6.26001 70.8116 6.26001 150.44C6.26001 230.068 70.8116 294.62 150.44 294.62Z"
              stroke="#FAFAFA" stroke-width="1.15" stroke-linecap="round" stroke-linejoin="round"/>
        <path opacity="0.81"
              d="M150.44 288.9C226.909 288.9 288.9 226.909 288.9 150.44C288.9 73.9707 226.909 11.98 150.44 11.98C73.9706 11.98 11.98 73.9707 11.98 150.44C11.98 226.909 73.9706 288.9 150.44 288.9Z"
              stroke="#FAFAFA" stroke-width="1.24" stroke-linecap="round" stroke-linejoin="round"/>
        <path opacity="0.81"
              d="M150.44 283.17C223.745 283.17 283.17 223.745 283.17 150.44C283.17 77.1353 223.745 17.71 150.44 17.71C77.1353 17.71 17.7101 77.1353 17.7101 150.44C17.7101 223.745 77.1353 283.17 150.44 283.17Z"
              stroke="#FAFAFA" stroke-width="1.33" stroke-linecap="round" stroke-linejoin="round"/>
        <path opacity="0.81"
              d="M150.44 277.45C220.586 277.45 277.45 220.586 277.45 150.44C277.45 80.2944 220.586 23.4301 150.44 23.4301C80.2944 23.4301 23.4301 80.2944 23.4301 150.44C23.4301 220.586 80.2944 277.45 150.44 277.45Z"
              stroke="#FAFAFA" stroke-width="1.42" stroke-linecap="round" stroke-linejoin="round"/>
        <path opacity="0.81"
              d="M150.44 271.72C217.421 271.72 271.72 217.421 271.72 150.44C271.72 83.4589 217.421 29.16 150.44 29.16C83.4589 29.16 29.16 83.4589 29.16 150.44C29.16 217.421 83.4589 271.72 150.44 271.72Z"
              stroke="#FAFAFA" stroke-width="1.52" stroke-linecap="round" stroke-linejoin="round"/>
        <path opacity="0.81"
              d="M150.44 265.99C214.257 265.99 265.99 214.257 265.99 150.44C265.99 86.6235 214.257 34.89 150.44 34.89C86.6235 34.89 34.89 86.6235 34.89 150.44C34.89 214.257 86.6235 265.99 150.44 265.99Z"
              stroke="#FAFAFA" stroke-width="1.61" stroke-linecap="round" stroke-linejoin="round"/>
        <path opacity="0.81"
              d="M150.44 260.27C211.097 260.27 260.27 211.097 260.27 150.44C260.27 89.7826 211.097 40.61 150.44 40.61C89.7826 40.61 40.61 89.7826 40.61 150.44C40.61 211.097 89.7826 260.27 150.44 260.27Z"
              stroke="#FAFAFA" stroke-width="1.7" stroke-linecap="round" stroke-linejoin="round"/>
        <path opacity="0.81"
              d="M150.44 254.54C207.933 254.54 254.54 207.933 254.54 150.44C254.54 92.9472 207.933 46.34 150.44 46.34C92.9473 46.34 46.3401 92.9472 46.3401 150.44C46.3401 207.933 92.9473 254.54 150.44 254.54Z"
              stroke="#FAFAFA" stroke-width="1.79" stroke-linecap="round" stroke-linejoin="round"/>
        <path opacity="0.81"
              d="M150.44 248.82C204.774 248.82 248.82 204.774 248.82 150.44C248.82 96.1063 204.774 52.0601 150.44 52.0601C96.1063 52.0601 52.0601 96.1063 52.0601 150.44C52.0601 204.774 96.1063 248.82 150.44 248.82Z"
              stroke="#FAFAFA" stroke-width="1.89" stroke-linecap="round" stroke-linejoin="round"/>
        <path opacity="0.81"
              d="M150.44 243.09C201.609 243.09 243.09 201.609 243.09 150.44C243.09 99.2709 201.609 57.79 150.44 57.79C99.2709 57.79 57.79 99.2709 57.79 150.44C57.79 201.609 99.2709 243.09 150.44 243.09Z"
              stroke="#FAFAFA" stroke-width="1.98" stroke-linecap="round" stroke-linejoin="round"/>
        <path opacity="0.81"
              d="M150.44 237.36C198.445 237.36 237.36 198.445 237.36 150.44C237.36 102.435 198.445 63.52 150.44 63.52C102.435 63.52 63.52 102.435 63.52 150.44C63.52 198.445 102.435 237.36 150.44 237.36Z"
              stroke="#FAFAFA" stroke-width="2.07" stroke-linecap="round" stroke-linejoin="round"/>
        <path opacity="0.81"
              d="M231.368 153.136C233.161 108.29 198.261 70.4814 153.416 68.6876C108.57 66.8938 70.7614 101.794 68.9676 146.64C67.1738 191.485 102.074 229.294 146.92 231.088C191.765 232.881 229.574 197.981 231.368 153.136Z"
              stroke="#FAFAFA" stroke-width="2.17174" stroke-linecap="round" stroke-linejoin="round"/>
        <path opacity="0.81"
              d="M150.44 225.91C192.121 225.91 225.91 192.121 225.91 150.44C225.91 108.759 192.121 74.97 150.44 74.97C108.759 74.97 74.97 108.759 74.97 150.44C74.97 192.121 108.759 225.91 150.44 225.91Z"
              stroke="#FAFAFA" stroke-width="2.26" stroke-linecap="round" stroke-linejoin="round"/>
        <path opacity="0.81"
              d="M150.44 220.19C188.962 220.19 220.19 188.962 220.19 150.44C220.19 111.918 188.962 80.6901 150.44 80.6901C111.918 80.6901 80.6901 111.918 80.6901 150.44C80.6901 188.962 111.918 220.19 150.44 220.19Z"
              stroke="#FAFAFA" stroke-width="2.35" stroke-linecap="round" stroke-linejoin="round"/>
        <path opacity="0.81"
              d="M150.44 214.46C185.797 214.46 214.46 185.797 214.46 150.44C214.46 115.083 185.797 86.42 150.44 86.42C115.083 86.42 86.42 115.083 86.42 150.44C86.42 185.797 115.083 214.46 150.44 214.46Z"
              stroke="#FAFAFA" stroke-width="2.44" stroke-linecap="round" stroke-linejoin="round"/>
        <path opacity="0.81"
              d="M150.44 208.73C182.633 208.73 208.73 182.633 208.73 150.44C208.73 118.247 182.633 92.15 150.44 92.15C118.247 92.15 92.15 118.247 92.15 150.44C92.15 182.633 118.247 208.73 150.44 208.73Z"
              stroke="#FAFAFA" stroke-width="2.54" stroke-linecap="round" stroke-linejoin="round"/>
        <path opacity="0.81"
              d="M150.44 203.01C179.474 203.01 203.01 179.474 203.01 150.44C203.01 121.406 179.474 97.8701 150.44 97.8701C121.406 97.8701 97.87 121.406 97.87 150.44C97.87 179.474 121.406 203.01 150.44 203.01Z"
              stroke="#FAFAFA" stroke-width="2.63" stroke-linecap="round" stroke-linejoin="round"/>
        <path opacity="0.81"
              d="M150.44 197.28C176.309 197.28 197.28 176.309 197.28 150.44C197.28 124.571 176.309 103.6 150.44 103.6C124.571 103.6 103.6 124.571 103.6 150.44C103.6 176.309 124.571 197.28 150.44 197.28Z"
              stroke="#FAFAFA" stroke-width="2.72" stroke-linecap="round" stroke-linejoin="round"/>
        <path opacity="0.81"
              d="M150.44 191.56C173.15 191.56 191.56 173.15 191.56 150.44C191.56 127.73 173.15 109.32 150.44 109.32C127.73 109.32 109.32 127.73 109.32 150.44C109.32 173.15 127.73 191.56 150.44 191.56Z"
              stroke="#FAFAFA" stroke-width="2.81" stroke-linecap="round" stroke-linejoin="round"/>
        <path opacity="0.81"
              d="M150.44 185.83C169.985 185.83 185.83 169.985 185.83 150.44C185.83 130.895 169.985 115.05 150.44 115.05C130.895 115.05 115.05 130.895 115.05 150.44C115.05 169.985 130.895 185.83 150.44 185.83Z"
              stroke="#FAFAFA" stroke-width="2.91" stroke-linecap="round" stroke-linejoin="round"/>
        <path opacity="0.81"
              d="M179.288 157.307C183.089 141.373 173.255 125.375 157.321 121.573C141.388 117.771 125.389 127.606 121.587 143.539C117.786 159.473 127.62 175.471 143.554 179.273C159.487 183.075 175.486 173.24 179.288 157.307Z"
              stroke="#FAFAFA" stroke-width="3" stroke-linecap="round" stroke-linejoin="round"/>
    </g>
    <g filter="url(#filter1_d_1011:1054)">
        <circle cx="404" cy="373" r="39" fill="url(#paint1_linear_1011:1054)"/>
    </g>
    <defs>
        <filter id="filter0_d_1011:1054" x="20" y="0" width="404" height="404" filterUnits="userSpaceOnUse"
                color-interpolation-filters="sRGB">
            <feFlood flood-opacity="0" result="BackgroundImageFix"/>
            <feColorMatrix in="SourceAlpha" type="matrix" values="0 0 0 0 0 0 0 0 0 0 0 0 0 0 0 0 0 0 127 0"
                           result="hardAlpha"/>
            <feOffset dy="4"/>
            <feGaussianBlur stdDeviation="10"/>
            <feComposite in2="hardAlpha" operator="out"/>
            <feColorMatrix type="matrix" values="0 0 0 0 0.5 0 0 0 0 1 0 0 0 0 0.625065 0 0 0 0.5 0"/>
            <feBlend mode="normal" in2="BackgroundImageFix" result="effect1_dropShadow_1011:1054"/>
            <feBlend mode="normal" in="SourceGraphic" in2="effect1_dropShadow_1011:1054" result="shape"/>
        </filter>
        <filter id="filter1_d_1011:1054" x="343" y="316" width="122" height="122" filterUnits="userSpaceOnUse"
                color-interpolation-filters="sRGB">
            <feFlood flood-opacity="0" result="BackgroundImageFix"/>
            <feColorMatrix in="SourceAlpha" type="matrix" values="0 0 0 0 0 0 0 0 0 0 0 0 0 0 0 0 0 0 127 0"
                           result="hardAlpha"/>
            <feMorphology radius="2" operator="dilate" in="SourceAlpha" result="effect1_dropShadow_1011:1054"/>
            <feOffset dy="4"/>
            <feGaussianBlur stdDeviation="10"/>
            <feComposite in2="hardAlpha" operator="out"/>
            <feColorMatrix type="matrix" values="0 0 0 0 0.5 0 0 0 0 1 0 0 0 0 0.625065 0 0 0 0.5 0"/>
            <feBlend mode="normal" in2="BackgroundImageFix" result="effect1_dropShadow_1011:1054"/>
            <feBlend mode="normal" in="SourceGraphic" in2="effect1_dropShadow_1011:1054" result="shape"/>
        </filter>
        <linearGradient id="paint0_linear_1011:1054" x1="129.216" y1="48.1176" x2="332.627" y2="396.059"
                        gradientUnits="userSpaceOnUse">
            <stop offset="0.0337936" stop-color="#56CCF2"/>
            <stop offset="1" stop-color="#80FF9F"/>
        </linearGradient>
        <linearGradient id="paint1_linear_1011:1054" x1="384.118" y1="340.882" x2="427.706" y2="415.441"
                        gradientUnits="userSpaceOnUse">
            <stop offset="0.0337936" stop-color="#56CCF2"/>
            <stop offset="1" stop-color="#80FF9F"/>
        </linearGradient>
    </defs>
</svg>

<svg width="465" height="438" fill="none" xmlns="http://www.w3.org/2000/svg"><g filter="url(#a)"><circle cx="222" cy="198" r="182" fill="url(#b)"/></g><g opacity=".81" stroke="#FAFAFA" stroke-linecap="round" stroke-linejoin="round"><path opacity=".81" d="M150.44 300.35c82.793 0 149.91-67.117 149.91-149.91C300.35 67.647 233.233.53 150.44.53 67.647.53.53 67.647.53 150.44c0 82.793 67.117 149.91 149.91 149.91Z" stroke-width="1.05"/><path opacity=".81" d="M150.44 294.62c79.628 0 144.18-64.552 144.18-144.18S230.068 6.26 150.44 6.26 6.26 70.812 6.26 150.44s64.552 144.18 144.18 144.18Z" stroke-width="1.15"/><path opacity=".81" d="M150.44 288.9c76.469 0 138.46-61.991 138.46-138.46 0-76.47-61.991-138.46-138.46-138.46-76.47 0-138.46 61.99-138.46 138.46 0 76.469 61.99 138.46 138.46 138.46Z" stroke-width="1.24"/><path opacity=".81" d="M150.44 283.17c73.305 0 132.73-59.425 132.73-132.73 0-73.305-59.425-132.73-132.73-132.73-73.305 0-132.73 59.425-132.73 132.73 0 73.305 59.425 132.73 132.73 132.73Z" stroke-width="1.33"/><path opacity=".81" d="M150.44 277.45c70.146 0 127.01-56.864 127.01-127.01 0-70.146-56.864-127.01-127.01-127.01-70.146 0-127.01 56.864-127.01 127.01 0 70.146 56.864 127.01 127.01 127.01Z" stroke-width="1.42"/><path opacity=".81" d="M150.44 271.72c66.981 0 121.28-54.299 121.28-121.28S217.421 29.16 150.44 29.16 29.16 83.459 29.16 150.44s54.299 121.28 121.28 121.28Z" stroke-width="1.52"/><path opacity=".81" d="M150.44 265.99c63.817 0 115.55-51.733 115.55-115.55 0-63.816-51.733-115.55-115.55-115.55-63.816 0-115.55 51.734-115.55 115.55 0 63.817 51.734 115.55 115.55 115.55Z" stroke-width="1.61"/><path opacity=".81" d="M150.44 260.27c60.657 0 109.83-49.173 109.83-109.83S211.097 40.61 150.44 40.61 40.61 89.783 40.61 150.44s49.173 109.83 109.83 109.83Z" stroke-width="1.7"/><path opacity=".81" d="M150.44 254.54c57.493 0 104.1-46.607 104.1-104.1 0-57.493-46.607-104.1-104.1-104.1-57.493 0-104.1 46.607-104.1 104.1 0 57.493 46.607 104.1 104.1 104.1Z" stroke-width="1.79"/><path opacity=".81" d="M150.44 248.82c54.334 0 98.38-44.046 98.38-98.38 0-54.334-44.046-98.38-98.38-98.38-54.334 0-98.38 44.046-98.38 98.38 0 54.334 44.046 98.38 98.38 98.38Z" stroke-width="1.89"/><path opacity=".81" d="M150.44 243.09c51.169 0 92.65-41.481 92.65-92.65 0-51.17-41.481-92.65-92.65-92.65-51.17 0-92.65 41.48-92.65 92.65 0 51.169 41.48 92.65 92.65 92.65Z" stroke-width="1.98"/><path opacity=".81" d="M150.44 237.36c48.005 0 86.92-38.915 86.92-86.92s-38.915-86.92-86.92-86.92-86.92 38.915-86.92 86.92 38.915 86.92 86.92 86.92Z" stroke-width="2.07"/><path opacity=".81" d="M231.368 153.136c1.793-44.846-33.107-82.655-77.952-84.448-44.846-1.794-82.655 33.106-84.448 77.952-1.794 44.845 33.106 82.654 77.952 84.448 44.845 1.793 82.654-33.107 84.448-77.952Z" stroke-width="2.172"/><path opacity=".81" d="M150.44 225.91c41.681 0 75.47-33.789 75.47-75.47s-33.789-75.47-75.47-75.47-75.47 33.789-75.47 75.47 33.789 75.47 75.47 75.47Z" stroke-width="2.26"/><path opacity=".81" d="M150.44 220.19c38.522 0 69.75-31.228 69.75-69.75s-31.228-69.75-69.75-69.75-69.75 31.228-69.75 69.75 31.228 69.75 69.75 69.75Z" stroke-width="2.35"/><path opacity=".81" d="M150.44 214.46c35.357 0 64.02-28.663 64.02-64.02s-28.663-64.02-64.02-64.02-64.02 28.663-64.02 64.02 28.663 64.02 64.02 64.02Z" stroke-width="2.44"/><path opacity=".81" d="M150.44 208.73c32.193 0 58.29-26.097 58.29-58.29s-26.097-58.29-58.29-58.29-58.29 26.097-58.29 58.29 26.097 58.29 58.29 58.29Z" stroke-width="2.54"/><path opacity=".81" d="M150.44 203.01c29.034 0 52.57-23.536 52.57-52.57s-23.536-52.57-52.57-52.57-52.57 23.536-52.57 52.57 23.536 52.57 52.57 52.57Z" stroke-width="2.63"/><path opacity=".81" d="M150.44 197.28c25.869 0 46.84-20.971 46.84-46.84 0-25.869-20.971-46.84-46.84-46.84-25.869 0-46.84 20.971-46.84 46.84 0 25.869 20.971 46.84 46.84 46.84Z" stroke-width="2.72"/><path opacity=".81" d="M150.44 191.56c22.71 0 41.12-18.41 41.12-41.12 0-22.71-18.41-41.12-41.12-41.12-22.71 0-41.12 18.41-41.12 41.12 0 22.71 18.41 41.12 41.12 41.12Z" stroke-width="2.81"/><path opacity=".81" d="M150.44 185.83c19.545 0 35.39-15.845 35.39-35.39s-15.845-35.39-35.39-35.39-35.39 15.845-35.39 35.39 15.845 35.39 35.39 35.39Z" stroke-width="2.91"/><path opacity=".81" d="M179.288 157.307c3.801-15.934-6.033-31.932-21.967-35.734-15.933-3.802-31.932 6.033-35.734 21.966-3.801 15.934 6.033 31.932 21.967 35.734 15.933 3.802 31.932-6.033 35.734-21.966Z" stroke-width="3"/></g><g filter="url(#c)"><circle cx="404" cy="373" r="39" fill="url(#d)"/></g><defs><linearGradient id="b" x1="129.216" y1="48.118" x2="332.627" y2="396.059" gradientUnits="userSpaceOnUse"><stop offset=".034" stop-color="#56CCF2"/><stop offset="1" stop-color="#80FF9F"/></linearGradient><linearGradient id="d" x1="384.118" y1="340.882" x2="427.706" y2="415.441" gradientUnits="userSpaceOnUse"><stop offset=".034" stop-color="#56CCF2"/><stop offset="1" stop-color="#80FF9F"/></linearGradient><filter id="a" x="20" y="0" width="404" height="404" filterUnits="userSpaceOnUse" color-interpolation-filters="sRGB"><feFlood flood-opacity="0" result="BackgroundImageFix"/><feColorMatrix in="SourceAlpha" values="0 0 0 0 0 0 0 0 0 0 0 0 0 0 0 0 0 0 127 0" result="hardAlpha"/><feOffset dy="4"/><feGaussianBlur stdDeviation="10"/><feComposite in2="hardAlpha" operator="out"/><feColorMatrix values="0 0 0 0 0.5 0 0 0 0 1 0 0 0 0 0.625065 0 0 0 0.5 0"/><feBlend in2="BackgroundImageFix" result="effect1_dropShadow_1011:1054"/><feBlend in="SourceGraphic" in2="effect1_dropShadow_1011:1054" result="shape"/></filter><filter id="c" x="343" y="316" width="122" height="122" filterUnits="userSpaceOnUse" color-interpolation-filters="sRGB"><feFlood flood-opacity="0" result="BackgroundImageFix"/><feColorMatrix in="SourceAlpha" values="0 0 0 0 0 0 0 0 0 0 0 0 0 0 0 0 0 0 127 0" result="hardAlpha"/><feMorphology radius="2" operator="dilate" in="SourceAlpha" result="effect1_dropShadow_1011:1054"/><feOffset dy="4"/><feGaussianBlur stdDeviation="10"/><feComposite in2="hardAlpha" operator="out"/><feColorMatrix values="0 0 0 0 0.5 0 0 0 0 1 0 0 0 0 0.625065 0 0 0 0.5 0"/><feBlend in2="BackgroundImageFix" result="effect1_dropShadow_1011:1054"/><feBlend in="SourceGraphic" in2="effect1_dropShadow_1011:1054" result="shape"/></filter></defs></svg>
